src/main/resources/icons/AllIcons/vcs/not_equal.svg

<!-- Copyright 2000-2021 JetBrains s.r.o. Use of this source code is governed by the Apache 2.0 license that can be found in the LICENSE file. -->
<svg xmlns="http://www.w3.org/2000/svg" width="16" height="16" viewBox="0 0 16 16">
  <path fill="#DB5860" fill-rule="evenodd" d="M8.80615255,5 L10.5381186,1.99914493 L12.1951908,1.9950369 L10.4584838,5 L14,5 L14,7 L9.30259135,7 L8.14669892,9 L14,9 L14,11 L6.99080648,11 L5.25696784,14 L3.61173504,14 L5.34320754,11 L2,11 L2,9 L6.49752254,9 L7.65183755,7 L2,7 L2,5 L8.80615255,5 Z"/>
</svg>

<svg xmlns="http://www.w3.org/2000/svg" width="16" height="16" viewBox="0 0 16 16"><rect id="frame" width="16" height="16" fill="none"/><path fill="#DB5860" fill-rule="evenodd" d="M8.806 5l1.732-3 1.657-.005L10.458 5H14v2H9.303L8.147 9H14v2H6.99l-1.733 3H3.612l1.731-3H2V9h4.498l1.154-2H2V5h6.806z"/></svg>
